src/assets/icons/question_icon.svg

<svg xmlns="http://www.w3.org/2000/svg" width="17" height="17"><path d="M8.498 0a8.533 8.533 0 00-8.5 8.5 8.434 8.434 0 001.191 4.317L.026 16.344a.5.5 0 00.63.63l3.528-1.165A8.434 8.434 0 008.498 17a8.5 8.5 0 000-17zm0 14.974a1.494 1.494 0 111.5-1.494 1.5 1.5 0 01-1.5 1.494zm2.1-7.166l-1.1 1.1v1.086a1 1 0 11-1.992 0V8.912A1.979 1.979 0 018.087 7.5l1.1-1.1a1.059 1.059 0 00.3-.843 1.043 1.043 0 00-1.033-1.041.952.952 0 00-.95.95 1 1 0 01-1.992 0 2.946 2.946 0 012.942-2.943 3.037 3.037 0 013.034 3.034 3.026 3.026 0 01-.89 2.252z" fill="#333"/></svg>

<svg xmlns="http://www.w3.org/2000/svg" width="17" height="17" viewBox="0 0 17 17"><path d="M8.5,0A8.533,8.533,0,0,0,0,8.5a8.434,8.434,0,0,0,1.191,4.317L.028,16.344a.5.5,0,0,0,.63.63l3.528-1.165A8.434,8.434,0,0,0,8.5,17a8.5,8.5,0,0,0,0-17Zm0,14.974A1.494,1.494,0,1,1,10,13.48,1.5,1.5,0,0,1,8.5,14.974Zm2.1-7.166-1.1,1.1V9.994a1,1,0,1,1-1.992,0V8.912A1.979,1.979,0,0,1,8.089,7.5l1.1-1.1a1.059,1.059,0,0,0,.3-.843A1.043,1.043,0,0,0,8.456,4.516a.952.952,0,0,0-.95.95,1,1,0,0,1-1.992,0A2.946,2.946,0,0,1,8.456,2.523,3.037,3.037,0,0,1,11.49,5.557,3.026,3.026,0,0,1,10.6,7.809Z" transform="translate(-0.002)" fill="#333"/></svg>
